symbolic/22x22/apps/com.github.taiko2k.avvie.svg

<svg xmlns="http://www.w3.org/2000/svg" height="22" width="22" version="1.1">
 <rect style="opacity:.2" rx="1" ry="1" height="18" width="18" y="2.5" x="2"/>
 <rect style="fill:#634cb8" rx="1" ry="1" height="18" width="18" y="2" x="2"/>
 <path style="opacity:.2;fill:#ffffff" d="m3 2c-0.554 0-1 0.446-1 1v0.5c0-0.554 0.446-1 1-1h16c0.554 0 1 0.446 1 1v-0.5c0-0.554-0.446-1-1-1h-16z"/>
 <path style="opacity:.2" d="m13 1.4999997v1.9995235h6v4.9988086h2v-4.9988086c0-1.1077359-0.892-1.9995235-2-1.9995235zm-12 12.996903v4.998809c0 1.107736 0.8949948 2.080913 2 1.999523h6v-1.999523h-6v-4.998809z"/>
 <path style="fill:#dfdfdf" d="m13 1.0000001v1.9995235h6v4.9988086h2v-4.9988086c0-1.1077359-0.892-1.9995235-2-1.9995235zm-12 13v4.995712c0 1.107736 0.8949948 2.080913 2 1.999523h6v-1.999523h-6v-4.995712z"/>
</svg>

<svg xmlns="http://www.w3.org/2000/svg" height="22" width="22"><rect style="opacity:.2" rx="1" ry="1" height="18" width="18" y="2.5" x="2"/><rect style="fill:#634cb8" rx="1" ry="1" height="18" width="18" y="2" x="2"/><path style="opacity:.2;fill:#fff" d="M3 2c-.554 0-1 .446-1 1v.5c0-.554.446-1 1-1h16c.554 0 1 .446 1 1V3c0-.554-.446-1-1-1H3z"/><path style="opacity:.2" d="M13 1.5v2h6v4.998h2V3.5c0-1.108-.892-2-2-2zM1 14.497v4.999c0 1.107.895 2.08 2 2h6v-2H3v-5z"/><path style="fill:#dfdfdf" d="M13 1v2h6v4.998h2V3c0-1.108-.892-2-2-2zM1 14v4.996c0 1.107.895 2.08 2 2h6v-2H3V14z"/></svg>
